!!!COM:	Du Fay, Guillaume
!!!CDT:	~1397/08/05/-1474/11/27
!!!OTL:	Belle vueillez moy vengier
!!!AGN:	Song; Chanson
!!!SCT:	Duf3022
!!!SCA:	Duf3022
!!!voices:	3
**kern	**kern	**kern	**text	**text	**text
*staff3	*staff2	*staff1	*staff1	*staff1	*staff1
*Ivox	*Ivox	*Ivox	*	*	*
*I"Tenor	*I"Contratenor	*I"Cantus	*	*	*
*I'T	*I'Ct	*I'Cn	*	*	*
*clefGv2	*clefGv2	*clefG2	*	*	*
*k[b-e-]	*k[b-e-]	*k[b-]	*	*	*
*M2/1	*M2/1	*M2/1	*	*	*
*met(C|)	*met(C|)	*met(C|)	*	*	*
=1-	=1-	=1-	=1-	=1-	=1-
!!LO:TX:Z=8:t=Rondeau
!LO:TX:Y=32:t=Belle veulli&eacute;s	!LO:TX:Y=32:t=Belle veulli&eacute;s	!	!	!	!
1.G	1G	0g	1.4.7. Bel-	3. Ja-	5. Ne
.	2E-/	.	.	.	.
2A/	2F/	.	.	.	.
=2	=2	=2	=2	=2	=2
1B-	1G	0g	-le,	-maiz	me
[1c	[1C	.	.	.	.
=3	=3	=3	=3	=3	=3
2c\]	0C]	1.g	vueil-	ne	souf-
2B-\	.	.	.	.	.
1c	.	.	.	.	.
.	.	2f/	.	.	.
=4	=4	=4	=4	=4	=4
1G	1r	2e-i/	.	.	.
.	.	2d/	.	.	.
1B-	1G	1d	-l&eacute;s	vous	-fr&eacute;s
=5	=5	=5	=5	=5	=5
1A	[0D	1.f#	.	.	.
1d	.	.	.	.	.
.	.	2g/	.	.	.
=6	=6	=6	=6	=6	=6
2d\	1D]	1a	moy	vueil	ou
2c\	.	.	.	.	.
1d	[1G	[1b-	.	.	.
=7	=7	=7	=7	=7	=7
1.B-	0G]	2b-\]	.	.	.
.	.	2g/	.	.	.
.	.	[1g	ven-	chan-	dan-
2G/	.	.	.	.	.
=8	=8	=8	=8	=8	=8
0A	0D	1g]	.	.	.
.	.	1f#i	.	.	.
=9	=9	=9	=9	=9	=9
[0G	1d	0g	-gier	-gier	-gier
.	2e-\	.	.	.	.
.	[2d\	.	.	.	.
=10	=10	=10	=10	=10	=10
0G]	2d\]	1r	.	.	.
.	1B-	.	.	.	.
.	.	1g	De	Ne	De
.	[2G/	.	.	.	.
=11	=11	=11	=11	=11	=11
1C	1G]	2.e-i/	ce	sur	ce
.	.	4c/	.	.	.
2BB-/	[1G	2d/	.	.	.
[2C/	.	2e-i/	.	.	.
=12	=12	=12	=12	=12	=12
2C/]	1G]	1c	ri-	vous	cru-
2E-/	.	.	.	.	.
2D/	2F/	1B-	.	.	.
2E-/	2G/	.	.	.	.
=13	=13	=13	=13	=13	=13
1F	1D	2A/	-go-	rien	-el
.	.	1d	.	.	.
2G/	1r	.	.	.	.
[2G/	.	2B-/	.	.	.
=14	=14	=14	=14	=14	=14
2G/]	1D	1A	-reux	cha-	lo-
2F#i/	.	.	.	.	.
1G	2E-/	2G/	.	.	.
.	2G/	2B-/	.	.	.
=15	=15	=15	=15	=15	=15
2A/	4F/	2c/	Dan-	-len-	-zen-
.	4E-/	.	.	.	.
2B-\	2D/	2d/	.	.	.
2c\	1C	2.e-/	.	.	.
[2G/	.	.	.	.	.
.	.	4d/	.	.	.
=16	=16	=16	=16	=16	=16
2G/]	2C/	4d/	.	.	.
.	.	4c/	.	.	.
2E-/	2G/	1c	.	.	.
1D	2.F/	.	.	.	.
.	.	2Bni/	.	.	.
.	4Eni/	.	.	.	.
=17	=17	=17	=17	=17	=17
0C	1G	1.c	.	.	.
.	1c	.	.	.	.
.	.	[2e-i/	.	.	.
=18	=18	=18	=18	=18	=18
1C	1G	2e-/]	.	.	.
.	.	2d/	.	.	.
2r	1C	2.c/	.	.	.
2E-/	.	.	.	.	.
.	.	4B-/	.	.	.
=19	=19	=19	=19	=19	=19
2D/	0r	0d	-gier,	-gier,	-gier,
1G	.	.	.	.	.
2F/	.	.	.	.	.
=20	=20	=20	=20	=20	=20
1G	1C	2r	.	.	.
.	.	2e-i/	Qui	Fors	Qui
2F/	2A/	2d/	.	.	.
2G/	2B-\	[2g/	.	.	.
=21	=21	=21	=21	=21	=21
1A	1c	2g/]	.	.	.
.	.	2f#i/	.	.	.
2G/	1d	1g	veult	vos-	tant
2B-\	.	.	.	.	.
=22	=22	=22	=22	=22	=22
2A/	1c	2f/	.	.	.
2B-\	.	2g/	.	.	.
[1c	1F	1a	ma	-tre	est
=23	=23	=23	=23	=23	=23
2c\]	2C/	2g/	joi-	bon	mon
1.d	2G/	2b-\	.	.	.
.	2F/	2a/	.	.	.
.	2G/	2b-\	.	.	.
=24	=24	=24	=24	=24	=24
1c	2.A/	2.cc\	.	.	.
.	4B-\	4b-\	.	.	.
1e-	2c\	4a/	.	.	.
.	.	4g/	.	.	.
.	2C/	2g/	-e	plai-	a-
=25	=25	=25	=25	=25	=25
2d\	2D/	2f/	def-	-sir	-ver-
1c	2E-/	2g/	.	.	.
.	2F/	2a-/	-fai-	fai-	-sai-
2B-\	2G/	[2g/	.	.	.
=26	=26	=26	=26	=26	=26
2c\	1C	2g/]	.	.	.
2A/	.	4f/	.	.	.
.	.	4e-i/	.	.	.
1Bni	1G	2.d/	.	.	.
.	.	4c/	.	.	.
=27	=27	=27	=27	=27	=27
!LO:TX:Z=18:t=s.c.	!LO:TX:Z=10:t=s.c.	!LO:TX:Z=10:t=s.c.	!	!	!
0c	0C	[0.c	-re,	-re,	-re
=28	=28	=28	=28	=28	=28
0r	0r	.	.	.	.
.	.	0.c]	.	.	.
=29	=29	=29	=29	=29	=29
*M3/1	*M3/1	*M3/1	*	*	*
*met(3)	*met(3)	*met(3)	*	*	*
0G	0C	.	.	.	.
1c	[1E-	0r	.	.	.
!	!	!LO:TX:Z=18:t=scomment&colon; tempo relationship is 3&colon;2 (new section faster)	!	!	!
=30	=30	=30	=30	=30	=30
0c	1E-]	.	.	.	.
.	0D	0r	.	.	.
1Bni	.	.	.	.	.
=31	=31	=31	=31	=31	=31
0c	0C	0g	2.8. Et	6. Et	.
[1e-	[1c	1cc	.	.	.
=32	=32	=32	=32	=32	=32
1e-]	1c]	0cc	met	tant	.
0d	0G	.	.	.	.
.	.	1bni	.	.	.
=33	=33	=33	=33	=33	=33
0c	0.C	0cc	po-	veult	.
1G	.	1b-i	.	.	.
=34	=34	=34	=34	=34	=34
0c	0.C	1a	-voir	sur	.
.	.	0g	.	.	.
1B-	.	.	.	.	.
=35	=35	=35	=35	=35	=35
1A	1r	1f	et	moy	.
0G	1r	1g	.	.	.
.	1G	1b-	.	.	.
=36	=36	=36	=36	=36	=36
1F	1D	1a	.	.	.
1G	0E-	1.g	.	.	.
1B-	.	.	.	.	.
.	.	2f/	.	.	.
=37	=37	=37	=37	=37	=37
1A	1F	1f	af-	mef-	.
0G	1C	1.e-i	.	.	.
.	1B-	.	.	.	.
.	.	2d/	.	.	.
=38	=38	=38	=38	=38	=38
1F	1A	0d	-fai-	-fai-	.
0E-	1.G	.	.	.	.
.	.	1c	.	.	.
.	2F/	.	.	.	.
=39	=39	=39	=39	=39	=39
0.D	0.A	[0.d	-re	-re	.
=40	=40	=40	=40	=40	=40
1r	0B-	0.d]	.	.	.
1r	.	.	.	.	.
[1D	1A	.	.	.	.
=41	=41	=41	=41	=41	=41
1D]	0d	1r	.	.	.
1G	.	1r	.	.	.
1F	1A	[1d	A	Que	.
=42	=42	=42	=42	=42	=42
0G	0Bn	1d]	.	.	.
.	.	1g	mon	de	.
1A	1c	1f	.	.	.
=43	=43	=43	=43	=43	=43
1B-	1d	0g	plai-	mon	.
1.c	0e-	.	.	.	.
.	.	1a	.	.	.
2B-\	.	.	.	.	.
=44	=44	=44	=44	=44	=44
1G	[0.d	1b-	.	.	.
1F	.	2cc\	.	.	.
.	.	2b-\	.	.	.
[1B-	.	2a/	.	.	.
.	.	2g/	.	.	.
=45	=45	=45	=45	=45	=45
1B-]	1d]	0g	.	.	.
0A	1.c	.	.	.	.
.	.	1f#i	.	.	.
.	2Bni\	.	.	.	.
=46	=46	=46	=46	=46	=46
0G	1d	1g	-sir	bien	.
.	1B-i	1d	.	.	.
1D	[1A	[1f	dom-	a-	.
=47	=47	=47	=47	=47	=47
1.F	1A]	2f/]	.	.	.
.	.	2e-i/	.	.	.
.	1A	1c	.	.	.
2E-/	.	.	.	.	.
1C	[1G	[1e-	.	.	.
=48	=48	=48	=48	=48	=48
1.E-	1G]	2e-/]	.	.	.
.	.	2f/	.	.	.
.	1c	1g	-ma-	-tar-	.
2F/	.	.	.	.	.
1G	[1B-	1d	.	.	.
=49	=49	=49	=49	=49	=49
1D	2B-\]	1.f	.	.	.
.	2A/	.	.	.	.
0F	1.A	.	.	.	.
.	.	2e-i/	.	.	.
.	.	2d/	.	.	.
.	2G/	2c/	.	.	.
=50	=50	=50	=50	=50	=50
1E-	1G	0c	.	.	.
0D	1.F	.	.	.	.
.	.	1Bni	.	.	.
.	2Eni/	.	.	.	.
=51	=51	=51	=51	=51	=51
0.Cl	0.Gl	0.cl	-gier.	-gier.	.
==	==	==	==	==	==
*-	*-	*-	*-	*-	*-
!!!RDF**kern: l=long note in original notation
!!!RDF**kern: i=editorial accidental
!!!ENC:	Planchart
!!!END:	2016/04/15/
!!!EED:	Jesse Rodin
!!!EEV:	2016/04/15/
!!!ONB:	Translated from MusicXML and edited on 2016/04/15/ by Craig Sapp
!!muse2ps: C^@{COM}^i2I150v95,95,150Q16
